dist/svgs/devui-icons/op/drag-small.svg

<?xml version="1.0" encoding="UTF-8"?>
<svg width="16px" height="16px" viewBox="0 0 16 16" version="1.1" xmlns="http://www.w3.org/2000/svg" xmlns:xlink="http://www.w3.org/1999/xlink">
    <title>操作/draggable_small</title>
    <desc>Created with Sketch.</desc>
    <g id="操作/draggable_small" stroke="none" stroke-width="1" fill="none" fill-rule="evenodd">
        <g id="形状" fill="#5170FF" fill-rule="nonzero">
            <path d="M4,0 L6,0 C6.55228475,-1.01453063e-16 7,0.44771525 7,1 L7,3 C7,3.55228475 6.55228475,4 6,4 L4,4 C3.44771525,4 3,3.55228475 3,3 L3,1 C3,0.44771525 3.44771525,1.01453063e-16 4,0 Z M4,6 L6,6 C6.55228475,6 7,6.44771525 7,7 L7,9 C7,9.55228475 6.55228475,10 6,10 L4,10 C3.44771525,10 3,9.55228475 3,9 L3,7 C3,6.44771525 3.44771525,6 4,6 Z M4,12 L6,12 C6.55228475,12 7,12.4477153 7,13 L7,15 C7,15.5522847 6.55228475,16 6,16 L4,16 C3.44771525,16 3,15.5522847 3,15 L3,13 C3,12.4477153 3.44771525,12 4,12 Z M10,0 L12,0 C12.5522847,-1.01453063e-16 13,0.44771525 13,1 L13,3 C13,3.55228475 12.5522847,4 12,4 L10,4 C9.44771525,4 9,3.55228475 9,3 L9,1 C9,0.44771525 9.44771525,1.01453063e-16 10,0 Z M10,6 L12,6 C12.5522847,6 13,6.44771525 13,7 L13,9 C13,9.55228475 12.5522847,10 12,10 L10,10 C9.44771525,10 9,9.55228475 9,9 L9,7 C9,6.44771525 9.44771525,6 10,6 Z M10,12 L12,12 C12.5522847,12 13,12.4477153 13,13 L13,15 C13,15.5522847 12.5522847,16 12,16 L10,16 C9.44771525,16 9,15.5522847 9,15 L9,13 C9,12.4477153 9.44771525,12 10,12 Z"></path>
        </g>
    </g>
</svg>

<svg xmlns="http://www.w3.org/2000/svg" viewBox="0 0 16 16"><path d="M4 0h2a1 1 0 011 1v2a1 1 0 01-1 1H4a1 1 0 01-1-1V1a1 1 0 011-1zm0 6h2a1 1 0 011 1v2a1 1 0 01-1 1H4a1 1 0 01-1-1V7a1 1 0 011-1zm0 6h2a1 1 0 011 1v2a1 1 0 01-1 1H4a1 1 0 01-1-1v-2a1 1 0 011-1zm6-12h2a1 1 0 011 1v2a1 1 0 01-1 1h-2a1 1 0 01-1-1V1a1 1 0 011-1zm0 6h2a1 1 0 011 1v2a1 1 0 01-1 1h-2a1 1 0 01-1-1V7a1 1 0 011-1zm0 6h2a1 1 0 011 1v2a1 1 0 01-1 1h-2a1 1 0 01-1-1v-2a1 1 0 011-1z"/></svg>
